images/colissimo_logo.svg

<svg xmlns="http://www.w3.org/2000/svg" width="24" height="24" fill="none" viewBox="0 0 176 176"><path fill="url(#a)" d="M88.4 0c-1 0-1.9.2-2.7.6L16.8 38.2 94 83.1c.7.4 1.3 1.3 1.3 2.2v65.5c0 .9-.5 1.7-1.3 2.2l-4.2 2.3c-.4.2-.8.3-1.2.3h-.1c-.5 0-.9-.1-1.3-.3L83 153c-.8-.5-1.2-1.3-1.3-2.2V92.3c-.1-.5-.3-.9-.7-1.1L13 51.6v77.5c0 1.7 1.2 3.9 2.7 4.7l70 41.3c.8.4 1.8.7 2.7.7.9 0 1.9-.2 2.7-.7l70-41.3c1.6-1.1 2.6-2.8 2.7-4.7V51.6l-46.1 26.8c-.8.4-1.7.4-2.5 0l-4-2.4c-.4-.2-.7-.6-.9-.9V75c-.3-.4-.4-.8-.4-1.3l-.1-4.8c0-.9.5-1.7 1.2-2.2l49.1-28.6L91.2.6c-.9-.4-1.8-.6-2.8-.6"/><defs><linearGradient id="a" x1="13.125" x2="164" y1="87.918" y2="87.918" gradientUnits="userSpaceOnUse"><stop stop-color="#F25C19"/><stop offset=".379" stop-color="#F25C19"/><stop offset="1" stop-color="#FAB217"/></linearGradient></defs></svg>

<svg width="24" height="24" viewBox="0 0 176 176" fill="none" xmlns="http://www.w3.org/2000/svg">
<path d="M88.4 0C87.4 0 86.5 0.2 85.7 0.6L16.8 38.2L94 83.1C94.7 83.5 95.3 84.4 95.3 85.3V150.8C95.3 151.7 94.8 152.5 94 153L89.8 155.3C89.4 155.5 89 155.6 88.6 155.6H88.5C88 155.6 87.6 155.5 87.2 155.3L83 153C82.2 152.5 81.8 151.7 81.7 150.8V92.3C81.6 91.8 81.4 91.4 81 91.2L13 51.6V129.1C13 130.8 14.2 133 15.7 133.8L85.7 175.1C86.5 175.5 87.5 175.8 88.4 175.8C89.3 175.8 90.3 175.6 91.1 175.1L161.1 133.8C162.7 132.7 163.7 131 163.8 129.1V51.6L117.7 78.4C116.9 78.8 116 78.8 115.2 78.4L111.2 76C110.8 75.8 110.5 75.4 110.3 75.1V75C110 74.6 109.9 74.2 109.9 73.7L109.8 68.9C109.8 68 110.3 67.2 111 66.7L160.1 38.1L91.2 0.6C90.3 0.2 89.4 0 88.4 0" fill="url(#paint0_linear_1526_330818)"/>
<defs>
<linearGradient id="paint0_linear_1526_330818" x1="13.1248" y1="87.9179" x2="164" y2="87.9179" gradientUnits="userSpaceOnUse">
<stop stop-color="#F25C19"/>
<stop offset="0.379" stop-color="#F25C19"/>
<stop offset="1" stop-color="#FAB217"/>
</linearGradient>
</defs>
</svg>
